svgs/lsposed.svg

<svg width="24" height="24" viewBox="0 0 24 24" fill="none" xmlns="http://www.w3.org/2000/svg">
<path fill-rule="evenodd" clip-rule="evenodd" d="M17.0748 12L20.6997 8.37512C21.1001 7.97473 21.1001 7.32556 20.6997 6.92517L17.0748 3.30029C16.6744 2.8999 16.0253 2.8999 15.6249 3.30029L12 6.92517L8.37513 3.30029C7.97474 2.8999 7.32557 2.8999 6.92518 3.30029L3.3003 6.92517C2.89991 7.32556 2.89991 7.97473 3.3003 8.37512L6.92517 12L3.30029 15.6249C2.8999 16.0253 2.8999 16.6744 3.30029 17.0748L6.92517 20.6997C7.32556 21.1001 7.97473 21.1001 8.37512 20.6997L12 17.0748L15.6249 20.6997C16.0253 21.1001 16.6744 21.1001 17.0748 20.6997L20.6997 17.0748C21.1001 16.6744 21.1001 16.0253 20.6997 15.6249L17.0748 12ZM11.275 7.65014L7.65016 4.02527L4.02528 7.65015L7.65015 11.275L11.275 7.65014ZM9.09735 12.7222L9.10009 12.725L9.10285 12.7277C9.50346 13.1254 10.1506 13.1245 10.55 12.725C10.9504 12.3246 10.9504 11.6754 10.55 11.275C10.1497 10.8746 9.50049 10.8746 9.10009 11.275C8.70062 11.6745 8.6997 12.3216 9.09735 12.7222ZM11.2721 14.897L11.275 14.8999L11.2779 14.9028C11.6785 15.3003 12.3255 15.2993 12.725 14.8999C13.1254 14.4995 13.1254 13.8503 12.725 13.45C12.3246 13.0496 11.6754 13.0496 11.275 13.45C10.8756 13.8494 10.8746 14.4964 11.2721 14.897ZM12.725 16.3498L16.3499 12.725L19.9747 16.3499L16.3499 19.9747L12.725 16.3498ZM12.725 9.1001C12.3246 8.69971 11.6754 8.69971 11.275 9.1001C10.8746 9.50049 10.8746 10.1497 11.275 10.55C11.6754 10.9504 12.3246 10.9504 12.725 10.55C13.1254 10.1497 13.1254 9.50049 12.725 9.1001ZM14.8999 11.275C14.4995 10.8746 13.8503 10.8746 13.4499 11.275C13.0496 11.6754 13.0496 12.3246 13.4499 12.725C13.8503 13.1254 14.4995 13.1254 14.8999 12.725C15.3003 12.3246 15.3003 11.6754 14.8999 11.275Z" fill="#FFF1C0"/>
</svg>

<svg xmlns="http://www.w3.org/2000/svg" viewBox="0 0 24 24"><path fill-rule="evenodd" d="M17.075 12 20.7 8.375c.4-.4.4-1.05 0-1.45L17.075 3.3c-.4-.4-1.05-.4-1.45 0L12 6.925 8.375 3.3c-.4-.4-1.05-.4-1.45 0L3.3 6.925c-.4.4-.4 1.05 0 1.45L6.925 12 3.3 15.625c-.4.4-.4 1.05 0 1.45L6.925 20.7c.4.4 1.05.4 1.45 0L12 17.075l3.625 3.625c.4.4 1.05.4 1.45 0l3.625-3.625c.4-.4.4-1.05 0-1.45zm-5.8-4.35L7.65 4.025 4.025 7.65l3.625 3.625zm-2.178 5.072.003.003.003.003a1.025 1.025 0 1 0-.006-.006m2.175 2.175.003.003.003.003a1.025 1.025 0 1 0-.006-.006m1.453 1.453 3.625-3.625 3.625 3.625-3.625 3.625-3.625-3.625m0-7.25a1.025 1.025 0 1 0-1.45 1.45 1.025 1.025 0 0 0 1.45-1.45m2.175 2.175a1.025 1.025 0 1 0-1.45 1.45 1.025 1.025 0 0 0 1.45-1.45"/></svg>
